X: 72
T: The Bungalow
T: Reel, A
C: J. Scott Skinner
L: 1/16
M: C|
K: A
E2| A4c2A2 B2c2d2B2| e2f2g2a2 e2c2A2c2| d1d1d2 f2d2 c1c1c2 e2c2| B2e2^d2f2 e2d2c2B2| 
A4c2A2 B2c2d2B2| e2f2g2a2 e2c2A2c2| d2e2f2d2 c2e2a2f2| e2a2g2b2 a4|| 
(3e2f2g2 | a2b2g2a2 f2g2e2f2| d2e2c2d2 B2e2f2g2| a2b2g2a2 f2g2e2f2| e2a2g2b2 a4 (3e2f2g2| 
a2f2g2e2 f2d2e2c2| d2B2c2A2 B2G2E2D2| C2E2A2B2 c2e2a2f2| e2c2d2B2 A4||
D: Buddy MacMaster, Glencoe Hall, BM-91
D: Joe Cormier, Joseph Cormier and Friends, Rounder 7013
